!!!OTL: Die Mordeltern Es woen amol zwie Pauersien,
!!!ARE: Europa, Osteuropa, Tschechoslowakei, Sudetenland, Kuhlaendchen
!!!ARD: Europa%Osteuropa%Ceska Republika@Kuhlaendchen#
!!!ARL: 49.66/18.00#
!!!YOR: 4, S. 308
!!    1938 gedruckt in Reichenberg
!!!SCT: Q0085I
!!!YEM: Copyright 1995, estate of Helmut Schaffrath.
**kern
*ICvox
*Ivox
*M3/4
*k[b-e-]
*g:
{4d
=1
8d
8f#
4.g
8a
=2
8b-
8b-
4.fn}
{8b-
=3
8b-
8b-
4a
4g
=4
8d
8e-
4.fn}
{8g
=5
8fn
8e-
4d
4e-
=6
4fn
4d
8r}
{8b-
=7
8a
8b-
4a
4g
=8
4f#
4g}
==
!!!AGN: Ballade, Habgier, Mord, Reue, Selbstmord
!!!ONB: ESAC (Essen Associative Code) Database: BALLADE
!!!AMT: simple triple
!!!AIN: vox
!!!EED: Helmut Schaffrath
!!!EEV: 1.0
*-
!!!title: @{OTL} [@{SCT}]
